X:1
T: Bristol Hornpipe
C:
R:Reel
Q: 232
K:A
M:4/4
L:1/8
|:((3efg) |ae ce Ac ea|fd BG A2Bc|de fe dc BA|GA FG E2 ((3efg) |
ae ce Ac ea|fd BG A2Bc|df ed cB AG|B2A2 A2ed|
ce Ae ce Ae|df Bf df Bf|ce Ae ce Ae|GB EB GB EB|
ce Ae ce Ae|df Bf dfB2|df ed cB AG|B2A2 A2:|
